X: 0
T: Cradle Hymn
Z: Isaac Watts, 1715
Z: Public Domain
L: 1/4
M: 3/4
Q: 1/4=120
V: P1 name="Staff"
%%MIDI program 1 19
K: F
[V: P1]  A _D/=D/- D/E/ | F/E/ D/C/ E | D/E/ F/G/ B/A/ | A/G/ F/F/ E | c E/F/- F/G/ | A/d/ c/B/- B/A/ | G/F/ F/A/- A/G/ | F/G/ E/D/- D|]

